;FLAVOR:Marlin
;TIME:3198
;Filament used: 1.58805m
;Layer height: 0.15
;MINX:93.524
;MINY:93.524
;MINZ:0.2
;MAXX:126.486
;MAXY:126.476
;MAXZ:20.9
;Generated with Cura_SteamEngine 4.8.0
M140 S80
M105
M190 S80
M104 S230
M105
M109 S230
M82 ;absolute extrusion mode
G28 ;Home
G1 Z15.0 F2000 ;Move the platform
G92 E0
G92 E0
G1 F1500 E-6.5
;LAYER_COUNT:139
;LAYER:0
M107
M204 S1000
G0 F7500 X98.124 Y98.575 Z0.2
;TYPE:SKIRT
G1 F1500 E0
G1 X98.599 Y98.102 E0.04459
G1 X99.173 Y97.618 E0.09454
G1 X99.998 Y96.941 E0.16553
G1 X100.563 Y96.491 E0.21358
G1 X100.892 Y96.255 E0.24051
G1 X101.15 Y96.1 E0.26053
G1 X101.794 Y95.745 E0.30945
G1 X102.764 Y95.227 E0.3826
G1 X103.392 Y94.904 E0.42957
G1 X103.803 Y94.721 E0.4595
G1 X104.038 Y94.638 E0.47608
G1 X104.686 Y94.433 E0.52129
G1 X105.814 Y94.091 E0.5997
G1 X106.467 Y93.904 E0.64488
G1 X107.116 Y93.775 E0.6889
G1 X107.838 Y93.693 E0.73723
G1 X108.965 Y93.583 E0.81256
G1 X109.669 Y93.524 E0.85955
G1 X110.34 Y93.524 E0.90419
G1 X111.067 Y93.586 E0.95272
G1 X112.143 Y93.692 E1.02465
G1 X112.875 Y93.774 E1.07364
G1 X113.4 Y93.868 E1.10912
G1 X113.602 Y93.922 E1.12303
G1 X114.196 Y94.093 E1.16415
G1 X115.327 Y94.437 E1.24279
G1 X115.991 Y94.649 E1.28915
G1 X116.507 Y94.854 E1.32609
G1 X116.666 Y94.932 E1.33787
G1 X117.261 Y95.241 E1.38247
G1 X118.228 Y95.758 E1.45541
G1 X118.864 Y96.109 E1.50373
G1 X119.205 Y96.32 E1.5304
G1 X119.454 Y96.504 E1.551
G1 X120.04 Y96.973 E1.60093
G1 X120.83 Y97.621 E1.66889
G1 X121.422 Y98.122 E1.72048
G1 X121.895 Y98.596 E1.76503
G1 X122.382 Y99.173 E1.81525
G1 X123.061 Y100.001 E1.88648
G1 X123.519 Y100.577 E1.93544
G1 X123.888 Y101.13 E1.97966
G1 X124.255 Y101.794 E2.03013
G1 X124.763 Y102.746 E2.10191
G1 X125.091 Y103.382 E2.14951
G1 X125.25 Y103.729 E2.1749
G1 X125.362 Y104.039 E2.19682
G1 X125.567 Y104.686 E2.24197
G1 X125.909 Y105.811 E2.32019
G1 X126.095 Y106.459 E2.36503
G1 X126.224 Y107.109 E2.40912
G1 X126.307 Y107.838 E2.45792
G1 X126.417 Y108.963 E2.53311
G1 X126.476 Y109.663 E2.57984
G1 X126.486 Y110.185 E2.61457
G1 X126.473 Y110.388 E2.6281
G1 X126.414 Y111.064 E2.67324
G1 X126.308 Y112.143 E2.74536
G1 X126.225 Y112.884 E2.79496
G1 X126.095 Y113.542 E2.83958
G1 X125.905 Y114.202 E2.88527
G1 X125.563 Y115.329 E2.96361
G1 X125.351 Y115.992 E3.00991
G1 X125.146 Y116.507 E3.04679
G1 X125.068 Y116.666 E3.05857
G1 X124.759 Y117.261 E3.10317
G1 X124.24 Y118.231 E3.17635
G1 X123.881 Y118.88 E3.22568
G1 X123.507 Y119.44 E3.27048
G1 X123.028 Y120.039 E3.3215
G1 X122.38 Y120.829 E3.38946
G1 X121.878 Y121.422 E3.44115
G1 X121.404 Y121.895 E3.48569
G1 X120.826 Y122.382 E3.53597
G1 X119.998 Y123.062 E3.60724
G1 X119.421 Y123.52 E3.65624
G1 X118.992 Y123.817 E3.69095
G1 X118.822 Y123.916 E3.70404
G1 X118.254 Y124.228 E3.74715
G1 X117.279 Y124.75 E3.82072
G1 X116.61 Y125.096 E3.87082
G1 X115.982 Y125.355 E3.91601
G1 X115.258 Y125.585 E3.96654
G1 X114.269 Y125.884 E4.03527
G1 X113.526 Y126.097 E4.08668
G1 X112.872 Y126.227 E4.13104
G1 X112.141 Y126.309 E4.17997
G1 X111.034 Y126.417 E4.25396
G1 X110.33 Y126.476 E4.30095
G1 X109.658 Y126.476 E4.34565
G1 X108.934 Y126.414 E4.39399
G1 X107.857 Y126.308 E4.46598
G1 X107.125 Y126.226 E4.51498
G1 X106.6 Y126.132 E4.55045
G1 X106.398 Y126.078 E4.56436
G1 X105.797 Y125.905 E4.60597
G1 X104.673 Y125.563 E4.68412
G1 X104.009 Y125.351 E4.73048
G1 X103.493 Y125.146 E4.76742
G1 X103.334 Y125.068 E4.7792
G1 X102.739 Y124.759 E4.8238
G1 X101.772 Y124.242 E4.89674
G1 X101.136 Y123.891 E4.94506
G1 X100.795 Y123.68 E4.97174
G1 X100.549 Y123.498 E4.99209
G1 X99.952 Y123.021 E5.04292
G1 X99.17 Y122.379 E5.11023
G1 X98.578 Y121.878 E5.16182
G1 X98.105 Y121.404 E5.20636
G1 X97.618 Y120.827 E5.25659
G1 X96.942 Y120.003 E5.32748
G1 X96.491 Y119.437 E5.37563
G1 X96.12 Y118.882 E5.42003
G1 X95.747 Y118.208 E5.47128
G1 X95.237 Y117.253 E5.54329
G1 X94.906 Y116.611 E5.59134
G1 X94.653 Y116.001 E5.63527
G1 X94.433 Y115.314 E5.68326
G1 X94.091 Y114.186 E5.76166
G1 X93.904 Y113.533 E5.80685
G1 X93.775 Y112.884 E5.85086
G1 X93.693 Y112.162 E5.8992
G1 X93.583 Y111.035 E5.97453
G1 X93.524 Y110.331 E6.02152
G1 X93.524 Y109.659 E6.06622
G1 X93.586 Y108.934 E6.11463
G1 X93.692 Y107.857 E6.18661
G1 X93.774 Y107.125 E6.23561
G1 X93.868 Y106.6 E6.27109
G1 X93.922 Y106.396 E6.28513
G1 X94.096 Y105.796 E6.32668
G1 X94.449 Y104.635 E6.4074
G1 X94.648 Y104.011 E6.45097
G1 X94.854 Y103.493 E6.48806
G1 X94.932 Y103.334 E6.49984
G1 X95.241 Y102.739 E6.54443
G1 X95.757 Y101.774 E6.61723
G1 X96.106 Y101.141 E6.66531
G1 X96.359 Y100.74 E6.69685
G1 X96.519 Y100.527 E6.71457
G1 X96.973 Y99.96 E6.76289
G1 X97.621 Y99.169 E6.83091
G1 X98.124 Y98.575 E6.88269
G0 F7500 X98.43 Y98.834
G1 F1500 X98.857 Y98.408 E6.92281
G1 X99.427 Y97.927 E6.97242
G1 X100.247 Y97.254 E7.04299
G1 X100.812 Y96.804 E7.09103
G1 X101.108 Y96.592 E7.11525
G1 X101.343 Y96.45 E7.13352
G1 X101.982 Y96.098 E7.18205
G1 X102.947 Y95.583 E7.25481
G1 X103.575 Y95.26 E7.30179
G1 X103.945 Y95.095 E7.32873
G1 X104.159 Y95.02 E7.34382
G1 X104.802 Y94.815 E7.38871
G1 X105.924 Y94.475 E7.4667
G1 X106.577 Y94.288 E7.51188
G1 X107.162 Y94.172 E7.55156
G1 X107.877 Y94.091 E7.59942
G1 X108.998 Y93.982 E7.67434
G1 X109.702 Y93.923 E7.72134
G1 X110.306 Y93.923 E7.76152
G1 X111.028 Y93.984 E7.80971
G1 X112.099 Y94.089 E7.8813
G1 X112.831 Y94.171 E7.9303
G1 X113.303 Y94.256 E7.9622
G1 X113.491 Y94.306 E7.97514
G1 X114.08 Y94.476 E8.01592
G1 X115.205 Y94.818 E8.09414
G1 X115.869 Y95.03 E8.1405
G1 X116.334 Y95.214 E8.17377
G1 X116.482 Y95.288 E8.18477
G1 X117.072 Y95.594 E8.22899
G1 X118.034 Y96.108 E8.30154
G1 X118.67 Y96.459 E8.34986
G1 X118.98 Y96.651 E8.37412
G1 X119.204 Y96.816 E8.39262
G1 X119.786 Y97.282 E8.44222
G1 X120.572 Y97.926 E8.50981
G1 X121.164 Y98.427 E8.5614
G1 X121.59 Y98.854 E8.60153
G1 X122.073 Y99.427 E8.65138
G1 X122.748 Y100.249 E8.72213
G1 X123.206 Y100.825 E8.77108
G1 X123.538 Y101.324 E8.81095
G1 X123.902 Y101.982 E8.86097
G1 X124.408 Y102.929 E8.9324
G1 X124.736 Y103.565 E8.98
G1 X124.879 Y103.878 E9.00289
G1 X124.981 Y104.16 E9.02284
G1 X125.185 Y104.802 E9.06765
G1 X125.524 Y105.922 E9.14549
G1 X125.71 Y106.57 E9.19033
G1 X125.827 Y107.155 E9.23002
G1 X125.909 Y107.877 E9.27835
G1 X126.018 Y108.997 E9.35321
G1 X126.077 Y109.697 E9.39994
G1 X126.086 Y110.166 E9.43114
G1 X126.074 Y110.354 E9.44367
G1 X126.016 Y111.025 E9.48848
G1 X125.911 Y112.099 E9.56026
G1 X125.828 Y112.84 E9.60986
G1 X125.71 Y113.432 E9.65001
G1 X125.522 Y114.086 E9.69528
G1 X125.182 Y115.207 E9.7732
G1 X124.97 Y115.87 E9.81951
G1 X124.786 Y116.334 E9.85271
G1 X124.712 Y116.482 E9.86372
G1 X124.406 Y117.072 E9.90793
G1 X123.89 Y118.038 E9.98078
G1 X123.531 Y118.687 E10.03012
G1 X123.194 Y119.19 E10.07039
G1 X122.718 Y119.786 E10.12113
G1 X122.075 Y120.571 E10.18863
G1 X121.573 Y121.164 E10.24031
G1 X121.146 Y121.59 E10.28043
G1 X120.573 Y122.073 E10.33029
G1 X119.749 Y122.749 E10.40118
G1 X119.172 Y123.207 E10.45019
G1 X118.786 Y123.474 E10.48141
G1 X118.629 Y123.565 E10.49348
G1 X118.065 Y123.875 E10.53629
G1 X117.095 Y124.395 E10.6095
G1 X116.426 Y124.741 E10.6596
G1 X115.861 Y124.974 E10.70026
G1 X115.142 Y125.202 E10.75043
G1 X114.159 Y125.5 E10.81876
G1 X113.416 Y125.713 E10.87018
G1 X112.827 Y125.829 E10.91011
G1 X112.101 Y125.911 E10.95871
G1 X111.001 Y126.018 E11.03223
G1 X110.297 Y126.077 E11.07922
G1 X109.692 Y126.077 E11.11947
G1 X108.973 Y126.016 E11.16747
G1 X107.901 Y125.911 E11.23912
G1 X107.169 Y125.829 E11.28812
G1 X106.697 Y125.744 E11.32002
G1 X106.509 Y125.694 E11.33296
G1 X105.913 Y125.522 E11.37422
G1 X104.795 Y125.182 E11.45196
G1 X104.131 Y124.97 E11.49832
G1 X103.666 Y124.786 E11.53159
G1 X103.518 Y124.712 E11.54259
G1 X102.928 Y124.406 E11.58681
G1 X101.966 Y123.892 E11.65936
G1 X101.33 Y123.541 E11.70768
G1 X101.02 Y123.349 E11.73194
G1 X100.798 Y123.186 E11.75026
G1 X100.206 Y122.712 E11.80071
G1 X99.428 Y122.074 E11.86764
G1 X98.836 Y121.573 E11.91923
G1 X98.41 Y121.146 E11.95935
G1 X97.927 Y120.573 E12.0092
G1 X97.255 Y119.753 E12.07972
G1 X96.804 Y119.187 E12.12786
G1 X96.47 Y118.688 E12.16781
G1 X96.1 Y118.019 E12.21866
G1 X95.592 Y117.07 E12.29026
G1 X95.261 Y116.428 E12.33831
G1 X95.033 Y115.879 E12.37786
G1 X94.815 Y115.198 E12.42542
G1 X94.475 Y114.076 E12.50341
G1 X94.288 Y113.423 E12.54859
G1 X94.172 Y112.838 E12.58826
G1 X94.091 Y112.123 E12.63613
G1 X93.982 Y111.002 E12.71105
G1 X93.923 Y110.298 E12.75805
G1 X93.923 Y109.693 E12.79829
G1 X93.984 Y108.973 E12.84636
G1 X94.089 Y107.901 E12.91801
G1 X94.171 Y107.169 E12.96701
G1 X94.256 Y106.697 E12.99891
G1 X94.306 Y106.507 E13.01198
G1 X94.479 Y105.912 E13.0532
G1 X94.83 Y104.756 E13.13356
G1 X95.029 Y104.132 E13.17713
G1 X95.214 Y103.666 E13.21048
G1 X95.288 Y103.518 E13.22149
G1 X95.594 Y102.928 E13.2657
G1 X96.107 Y101.967 E13.33816
G1 X96.456 Y101.334 E13.38625
G1 X96.684 Y100.974 E13.41459
G1 X96.831 Y100.776 E13.431
G1 X97.282 Y100.214 E13.47893
G1 X97.927 Y99.428 E13.54657
G1 X98.43 Y98.834 E13.59834
G0 F7500 X98.735 Y99.092
G1 F1500 X99.114 Y98.713 E13.634
G1 X99.681 Y98.236 E13.68328
G1 X100.496 Y97.567 E13.75342
G1 X101.061 Y97.117 E13.80147
G1 X101.325 Y96.928 E13.82307
G1 X101.537 Y96.8 E13.83954
G1 X102.171 Y96.451 E13.88769
G1 X103.13 Y95.938 E13.96003
G1 X103.758 Y95.615 E14.00701
G1 X104.087 Y95.469 E14.03095
G1 X104.281 Y95.401 E14.04463
G1 X104.918 Y95.198 E14.0891
G1 X106.034 Y94.86 E14.16667
G1 X106.687 Y94.673 E14.21185
G1 X107.207 Y94.569 E14.24713
G1 X107.916 Y94.489 E14.29459
G1 X109.032 Y94.38 E14.36918
G1 X109.736 Y94.321 E14.41617
G1 X110.273 Y94.321 E14.45189
G1 X110.989 Y94.382 E14.49969
G1 X112.054 Y94.487 E14.57088
G1 X112.786 Y94.569 E14.61988
G1 X113.206 Y94.645 E14.64827
G1 X113.381 Y94.69 E14.66029
G1 X113.964 Y94.859 E14.70067
G1 X115.083 Y95.199 E14.77847
G1 X115.747 Y95.411 E14.82483
G1 X116.161 Y95.575 E14.85445
G1 X116.298 Y95.643 E14.86463
G1 X116.884 Y95.947 E14.90854
G1 X117.841 Y96.458 E14.98071
G1 X118.477 Y96.809 E15.02903
G1 X118.755 Y96.982 E15.05081
G1 X118.954 Y97.129 E15.06727
G1 X119.533 Y97.592 E15.11658
G1 X120.313 Y98.231 E15.18366
G1 X120.905 Y98.732 E15.23525
G1 X121.284 Y99.112 E15.27095
G1 X121.764 Y99.681 E15.32047
G1 X122.435 Y100.498 E15.39079
G1 X122.893 Y101.074 E15.43975
G1 X123.188 Y101.517 E15.47515
G1 X123.549 Y102.171 E15.52484
G1 X124.052 Y103.112 E15.59582
G1 X124.38 Y103.748 E15.64342
G1 X124.507 Y104.027 E15.66381
G1 X124.6 Y104.281 E15.68181
G1 X124.802 Y104.918 E15.72626
G1 X125.14 Y106.032 E15.8037
G1 X125.326 Y106.68 E15.84854
G1 X125.429 Y107.2 E15.88381
G1 X125.511 Y107.916 E15.93175
G1 X125.62 Y109.03 E16.0062
G1 X125.679 Y109.73 E16.05293
G1 X125.687 Y110.148 E16.08074
G1 X125.676 Y110.319 E16.09214
G1 X125.618 Y110.986 E16.13668
G1 X125.513 Y112.054 E16.20806
G1 X125.43 Y112.795 E16.25766
G1 X125.326 Y113.321 E16.29333
G1 X125.139 Y113.97 E16.33826
G1 X124.801 Y115.086 E16.41583
G1 X124.589 Y115.749 E16.46213
G1 X124.425 Y116.161 E16.49163
G1 X124.357 Y116.298 E16.5018
G1 X124.053 Y116.884 E16.54572
G1 X123.54 Y117.844 E16.61812
G1 X123.181 Y118.493 E16.66746
G1 X122.882 Y118.941 E16.70329
G1 X122.409 Y119.532 E16.75364
G1 X121.769 Y120.313 E16.82081
G1 X121.267 Y120.906 E16.87249
G1 X120.888 Y121.284 E16.9081
G1 X120.319 Y121.764 E16.95762
G1 X119.5 Y122.435 E17.02805
G1 X118.923 Y122.893 E17.07705
G1 X118.58 Y123.131 E17.10482
G1 X118.436 Y123.215 E17.11591
G1 X117.876 Y123.523 E17.15843
G1 X116.911 Y124.039 E17.23122
G1 X116.242 Y124.385 E17.28132
G1 X115.74 Y124.593 E17.31747
G1 X115.026 Y124.82 E17.3673
G1 X114.049 Y125.115 E17.43519
G1 X113.306 Y125.328 E17.48661
G1 X112.783 Y125.432 E17.52208
G1 X112.062 Y125.513 E17.57034
G1 X110.967 Y125.62 E17.64353
G1 X110.263 Y125.679 E17.69052
G1 X109.726 Y125.679 E17.72624
G1 X109.012 Y125.618 E17.77391
G1 X107.946 Y125.513 E17.84517
G1 X107.214 Y125.431 E17.89416
G1 X106.794 Y125.355 E17.92256
G1 X106.619 Y125.31 E17.93458
G1 X106.029 Y125.139 E17.97544
G1 X104.917 Y124.801 E18.05275
G1 X104.253 Y124.589 E18.09912
G1 X103.839 Y124.425 E18.12874
G1 X103.702 Y124.357 E18.13891
G1 X103.116 Y124.053 E18.18283
G1 X102.159 Y123.542 E18.25499
G1 X101.523 Y123.191 E18.30331
G1 X101.245 Y123.018 E18.3251
G1 X101.048 Y122.873 E18.34137
G1 X100.459 Y122.403 E18.39149
G1 X99.687 Y121.769 E18.45794
G1 X99.095 Y121.268 E18.50953
G1 X98.716 Y120.888 E18.54523
G1 X98.236 Y120.319 E18.59475
G1 X97.567 Y119.504 E18.66489
G1 X97.116 Y118.938 E18.71303
G1 X96.82 Y118.494 E18.74853
G1 X96.452 Y117.83 E18.79903
G1 X95.948 Y116.886 E18.87022
G1 X95.617 Y116.244 E18.91826
G1 X95.414 Y115.756 E18.95342
G1 X95.198 Y115.082 E19.0005
G1 X94.86 Y113.966 E19.07807
G1 X94.673 Y113.313 E19.12325
G1 X94.569 Y112.793 E19.15853
G1 X94.489 Y112.084 E19.20599
G1 X94.38 Y110.968 E19.28058
G1 X94.321 Y110.264 E19.32758
G1 X94.321 Y109.727 E19.3633
G1 X94.382 Y109.012 E19.41103
G1 X94.487 Y107.946 E19.48229
G1 X94.569 Y107.214 E19.53128
G1 X94.645 Y106.794 E19.55967
G1 X94.691 Y106.618 E19.57178
G1 X94.861 Y106.029 E19.61256
G1 X95.211 Y104.878 E19.69258
G1 X95.41 Y104.254 E19.73615
G1 X95.575 Y103.839 E19.76586
G1 X95.643 Y103.702 E19.77603
G1 X95.947 Y103.116 E19.81995
G1 X96.458 Y102.16 E19.89205
G1 X96.807 Y101.527 E19.94014
G1 X97.009 Y101.207 E19.96531
G1 X97.144 Y101.026 E19.98033
G1 X97.592 Y100.467 E20.02798
G1 X98.232 Y99.686 E20.09515
G1 X98.735 Y99.092 E20.14693
G1 F1500 E13.64693
;MESH:12v-buttery-plug.stl
G0 F7500 X101.601 Y101.601
G0 X108.372 Y100.372
G0 X111.628 Y100.372
G0 X120.394 Y107.6
;TYPE:WALL-INNER
G1 F1500 E20.14693
G1 X112.4 Y107.6 E20.67869
G1 X112.4 Y99.605 E21.21052
G1 X112.4 Y99.6 E21.21085
G1 X107.6 Y99.6 E21.53015
G1 X107.6 Y99.606 E21.53055
G1 X107.6 Y107.6 E22.06231
G1 X99.605 Y107.6 E22.59414
G1 X99.6 Y107.6 E22.59447
G1 X99.6 Y112.4 E22.91377
G1 X99.606 Y112.4 E22.91417
G1 X107.6 Y112.4 E23.44593
G1 X107.6 Y120.395 E23.97776
G1 X107.6 Y120.4 E23.9781
G1 X112.4 Y120.4 E24.29739
G1 X112.4 Y120.394 E24.29779
G1 X112.4 Y112.4 E24.82956
G1 X120.395 Y112.4 E25.36139
G1 X120.4 Y112.4 E25.36172
G1 X120.4 Y107.6 E25.68102
G1 X120.394 Y107.6 E25.68141
G0 F7500 X120 Y108
G1 F1500 X112 Y108 E26.21358
G1 X112 Y100 E26.74574
G1 X108 Y100 E27.01182
G1 X108 Y108 E27.54398
G1 X100 Y108 E28.07614
G1 X100 Y112 E28.34223
G1 X108 Y112 E28.87439
G1 X108 Y120 E29.40655
G1 X112 Y120 E29.67263
G1 X112 Y112 E30.20479
G1 X120 Y112 E30.73695
G1 X120 Y108 E31.00304
G0 F7500 X119.6 Y108.4
G1 F1500 X111.6 Y108.4 E31.5352
G1 X111.6 Y100.4 E32.06736
G1 X108.4 Y100.4 E32.28023
G1 X108.4 Y108.4 E32.81239
G1 X100.4 Y108.4 E33.34455
G1 X100.4 Y111.6 E33.55741
G1 X108.4 Y111.6 E34.08958
G1 X108.4 Y119.6 E34.62174
G1 X111.6 Y119.6 E34.8346
G1 X111.6 Y111.6 E35.36677
G1 X119.6 Y111.6 E35.89893
G1 X119.6 Y108.4 E36.11179
G0 F7500 X119.2 Y108.8
;TYPE:WALL-OUTER
G1 F1500 X111.2 Y108.8 E36.64395
G1 X111.2 Y100.8 E37.17612
G1 X108.8 Y100.8 E37.33577
G1 X108.8 Y108.8 E37.86793
G1 X100.8 Y108.8 E38.40009
G1 X100.8 Y111.2 E38.55974
G1 X108.8 Y111.2 E39.0919
G1 X108.8 Y119.2 E39.62406
G1 X111.2 Y119.2 E39.78371
G1 X111.2 Y111.2 E40.31587
G1 X119.2 Y111.2 E40.84804
G1 X119.2 Y108.8 E41.00768
G0 F7500 X119 Y108.8
G0 X119 Y108.36
G0 X119 Y108.3
G0 X119.628 Y108.372
G0 X119.628 Y111.628
G0 X111.628 Y119.628
G0 X105.757 Y120.25
;TYPE:WALL-INNER
G1 F1500 X103.836 Y119.221 E41.15265
G1 X102.155 Y117.845 E41.29715
G1 X100.779 Y116.164 E41.44166
G1 X99.75 Y114.243 E41.58662
G1 X99.227 Y112.519 E41.70647
G1 X99.226 Y112.514 E41.7068
G1 X99.119 Y112.162 E41.73128
G1 X98.907 Y110 E41.87578
G1 X99.119 Y107.838 E42.02029
G1 X99.225 Y107.487 E42.04468
G1 X99.226 Y107.483 E42.04495
G1 X99.75 Y105.757 E42.16494
G1 X100.779 Y103.836 E42.30991
G1 X102.155 Y102.155 E42.45441
G1 X103.836 Y100.779 E42.59892
G1 X105.757 Y99.75 E42.74388
G1 X107.481 Y99.227 E42.86372
G1 X107.486 Y99.226 E42.86406
G1 X107.838 Y99.119 E42.88854
G1 X110 Y98.907 E43.03304
G1 X112.162 Y99.119 E43.17755
G1 X112.513 Y99.225 E43.20194
G1 X112.517 Y99.226 E43.20221
G1 X114.243 Y99.75 E43.3222
G1 X116.164 Y100.779 E43.46717
G1 X117.845 Y102.155 E43.61167
G1 X119.221 Y103.836 E43.75618
G1 X120.25 Y105.757 E43.90114
G1 X120.773 Y107.481 E44.02098
G1 X120.774 Y107.486 E44.02132
